src/lib/images/svgs/icon-headset.svg

<?xml version="1.0" encoding="UTF-8"?> <svg xmlns="http://www.w3.org/2000/svg" xmlns:xlink="http://www.w3.org/1999/xlink" width="64px" height="64px" viewBox="0 0 64 64" version="1.1"> <g id="surface1"> <path style=" stroke:none;fill-rule:nonzero;fill:rgb(93.72549%,26.666667%,26.666667%);fill-opacity:1;" d="M 53.40625 28.652344 L 53.371094 28.652344 C 51.640625 28.652344 50.160156 27.351562 49.925781 25.628906 C 48.71875 16.714844 41.011719 9.992188 32 9.992188 C 22.988281 9.992188 15.28125 16.714844 14.074219 25.628906 C 13.839844 27.351562 12.359375 28.652344 10.628906 28.652344 L 10.59375 28.652344 C 9.59375 28.652344 8.636719 28.21875 7.980469 27.464844 C 7.320312 26.710938 7.015625 25.707031 7.148438 24.710938 C 7.445312 22.519531 8.03125 20.371094 8.898438 18.320312 C 10.164062 15.332031 11.96875 12.652344 14.269531 10.351562 C 16.570312 8.050781 19.253906 6.242188 22.238281 4.980469 C 25.335938 3.671875 28.621094 3.007812 32 3.007812 C 35.382812 3.007812 38.667969 3.671875 41.765625 4.980469 C 44.753906 6.242188 47.433594 8.050781 49.734375 10.351562 C 52.035156 12.652344 53.84375 15.332031 55.105469 18.320312 C 55.972656 20.367188 56.5625 22.519531 56.855469 24.710938 C 56.988281 25.707031 56.6875 26.710938 56.023438 27.464844 C 55.363281 28.21875 54.410156 28.652344 53.40625 28.652344 Z M 32 8.855469 C 36.679688 8.855469 41.191406 10.554688 44.703125 13.644531 C 48.179688 16.707031 50.4375 20.910156 51.054688 25.476562 C 51.214844 26.640625 52.210938 27.515625 53.375 27.515625 L 53.410156 27.515625 C 54.082031 27.515625 54.722656 27.226562 55.167969 26.71875 C 55.613281 26.210938 55.816406 25.535156 55.726562 24.867188 C 55.445312 22.773438 54.882812 20.722656 54.054688 18.765625 C 52.851562 15.914062 51.125 13.355469 48.929688 11.160156 C 46.730469 8.960938 44.171875 7.238281 41.320312 6.03125 C 38.363281 4.78125 35.230469 4.148438 32 4.148438 C 28.769531 4.148438 25.636719 4.78125 22.679688 6.03125 C 19.828125 7.234375 17.269531 8.960938 15.074219 11.15625 C 12.875 13.355469 11.152344 15.914062 9.945312 18.765625 C 9.117188 20.71875 8.554688 22.773438 8.277344 24.863281 C 8.1875 25.53125 8.390625 26.207031 8.832031 26.714844 C 9.277344 27.222656 9.917969 27.515625 10.59375 27.515625 L 10.625 27.515625 C 11.789062 27.515625 12.789062 26.636719 12.945312 25.476562 C 13.566406 20.90625 15.820312 16.703125 19.300781 13.644531 C 22.808594 10.554688 27.320312 8.855469 32 8.855469 Z M 32 8.855469 "/> <path style=" stroke:none;fill-rule:nonzero;fill:rgb(93.72549%,26.666667%,26.666667%);fill-opacity:1;" d="M 14.019531 45.808594 L 9.027344 45.808594 C 7.890625 45.808594 6.96875 44.886719 6.96875 43.75 L 6.96875 36.230469 C 6.96875 35.09375 7.890625 34.171875 9.027344 34.171875 L 14.023438 34.171875 C 14.335938 34.171875 14.589844 34.425781 14.589844 34.738281 L 14.589844 45.242188 C 14.589844 45.554688 14.335938 45.808594 14.019531 45.808594 Z M 9.027344 35.308594 C 8.519531 35.308594 8.105469 35.722656 8.105469 36.230469 L 8.105469 43.75 C 8.105469 44.257812 8.519531 44.671875 9.027344 44.671875 L 13.453125 44.671875 L 13.453125 35.308594 Z M 9.027344 35.308594 "/> <path style=" stroke:none;fill-rule:nonzero;fill:rgb(93.72549%,26.666667%,26.666667%);fill-opacity:1;" d="M 18.683594 48.191406 L 15.160156 48.191406 C 14.21875 48.191406 13.453125 47.425781 13.453125 46.484375 L 13.453125 33.492188 C 13.453125 32.554688 14.21875 31.789062 15.160156 31.789062 L 18.683594 31.789062 C 19.625 31.789062 20.390625 32.554688 20.390625 33.492188 L 20.390625 46.484375 C 20.390625 47.425781 19.625 48.191406 18.683594 48.191406 Z M 15.160156 32.925781 C 14.84375 32.925781 14.589844 33.179688 14.589844 33.496094 L 14.589844 46.484375 C 14.589844 46.800781 14.84375 47.054688 15.160156 47.054688 L 18.683594 47.054688 C 18.996094 47.054688 19.253906 46.800781 19.253906 46.484375 L 19.253906 33.496094 C 19.253906 33.179688 18.996094 32.925781 18.683594 32.925781 Z M 15.160156 32.925781 "/> <path style=" stroke:none;fill-rule:nonzero;fill:rgb(93.72549%,26.666667%,26.666667%);fill-opacity:1;" d="M 54.972656 45.808594 L 49.976562 45.808594 C 49.664062 45.808594 49.410156 45.554688 49.410156 45.238281 L 49.410156 34.738281 C 49.410156 34.425781 49.664062 34.171875 49.976562 34.171875 L 54.972656 34.171875 C 56.109375 34.171875 57.03125 35.09375 57.03125 36.226562 L 57.03125 43.75 C 57.03125 44.886719 56.109375 45.808594 54.972656 45.808594 Z M 50.546875 44.671875 L 54.976562 44.671875 C 55.480469 44.671875 55.894531 44.257812 55.894531 43.75 L 55.894531 36.226562 C 55.894531 35.722656 55.480469 35.308594 54.976562 35.308594 L 50.546875 35.308594 Z M 50.546875 44.671875 "/> <path style=" stroke:none;fill-rule:nonzero;fill:rgb(93.72549%,26.666667%,26.666667%);fill-opacity:1;" d="M 48.839844 48.191406 L 45.316406 48.191406 C 44.375 48.191406 43.609375 47.425781 43.609375 46.484375 L 43.609375 33.492188 C 43.609375 32.554688 44.375 31.789062 45.316406 31.789062 L 48.839844 31.789062 C 49.78125 31.789062 50.546875 32.554688 50.546875 33.492188 L 50.546875 46.484375 C 50.546875 47.425781 49.78125 48.191406 48.839844 48.191406 Z M 45.316406 32.925781 C 45 32.925781 44.746094 33.179688 44.746094 33.496094 L 44.746094 46.484375 C 44.746094 46.800781 45 47.054688 45.316406 47.054688 L 48.839844 47.054688 C 49.152344 47.054688 49.410156 46.800781 49.410156 46.484375 L 49.410156 33.496094 C 49.410156 33.179688 49.152344 32.925781 48.839844 32.925781 Z M 45.316406 32.925781 "/> <path style=" stroke:none;fill-rule:nonzero;fill:rgb(93.72549%,26.666667%,26.666667%);fill-opacity:1;" d="M 11.660156 35.308594 C 11.347656 35.308594 11.09375 35.054688 11.09375 34.738281 L 11.09375 27.96875 C 11.09375 27.65625 11.347656 27.402344 11.660156 27.402344 C 11.976562 27.402344 12.230469 27.65625 12.230469 27.96875 L 12.230469 34.738281 C 12.230469 35.054688 11.976562 35.308594 11.660156 35.308594 Z M 11.660156 35.308594 "/> <path style=" stroke:none;fill-rule:nonzero;fill:rgb(93.72549%,26.666667%,26.666667%);fill-opacity:1;" d="M 9.441406 35.308594 C 9.128906 35.308594 8.875 35.054688 8.875 34.738281 L 8.875 27.847656 C 8.875 27.535156 9.128906 27.277344 9.441406 27.277344 C 9.757812 27.277344 10.011719 27.535156 10.011719 27.847656 L 10.011719 34.738281 C 10.011719 35.054688 9.757812 35.308594 9.441406 35.308594 Z M 9.441406 35.308594 "/> <path style=" stroke:none;fill-rule:nonzero;fill:rgb(93.72549%,26.666667%,26.666667%);fill-opacity:1;" d="M 54.558594 35.308594 C 54.242188 35.308594 53.988281 35.054688 53.988281 34.738281 L 53.988281 27.96875 C 53.988281 27.65625 54.242188 27.402344 54.558594 27.402344 C 54.871094 27.402344 55.125 27.65625 55.125 27.96875 L 55.125 34.738281 C 55.125 35.054688 54.871094 35.308594 54.558594 35.308594 Z M 54.558594 35.308594 "/> <path style=" stroke:none;fill-rule:nonzero;fill:rgb(93.72549%,26.666667%,26.666667%);fill-opacity:1;" d="M 52.339844 35.308594 C 52.023438 35.308594 51.769531 35.054688 51.769531 34.738281 L 51.769531 27.96875 C 51.769531 27.65625 52.023438 27.402344 52.339844 27.402344 C 52.652344 27.402344 52.90625 27.65625 52.90625 27.96875 L 52.90625 34.738281 C 52.90625 35.054688 52.652344 35.308594 52.339844 35.308594 Z M 52.339844 35.308594 "/> </g> </svg>

<svg xmlns="http://www.w3.org/2000/svg" width="64" height="64"><path d="M53.406 28.652h-.035c-1.73 0-3.21-1.3-3.445-3.023C48.719 16.715 41.012 9.992 32 9.992c-9.012 0-16.719 6.723-17.926 15.637-.234 1.723-1.715 3.023-3.445 3.023h-.035a3.483 3.483 0 0 1-3.445-3.941 25.032 25.032 0 0 1 7.12-14.36c2.301-2.3 4.985-4.109 7.97-5.37A24.953 24.953 0 0 1 32 3.007c3.383 0 6.668.664 9.766 1.972a24.942 24.942 0 0 1 7.968 5.372c2.301 2.3 4.11 4.98 5.371 7.968a24.83 24.83 0 0 1 1.75 6.39 3.478 3.478 0 0 1-3.45 3.941ZM32 8.855c4.68 0 9.191 1.7 12.703 4.79a19.213 19.213 0 0 1 6.352 11.832 2.357 2.357 0 0 0 2.32 2.039h.035a2.337 2.337 0 0 0 2.317-2.649 23.779 23.779 0 0 0-1.672-6.101 23.792 23.792 0 0 0-5.125-7.606 23.863 23.863 0 0 0-7.61-5.129A23.796 23.796 0 0 0 32 4.148c-3.23 0-6.363.633-9.32 1.883a23.792 23.792 0 0 0-7.606 5.125 23.863 23.863 0 0 0-5.129 7.61 23.587 23.587 0 0 0-1.668 6.097c-.09.668.114 1.344.555 1.852.445.508 1.086.8 1.762.8h.031a2.358 2.358 0 0 0 2.32-2.038 19.198 19.198 0 0 1 6.356-11.832A19.2 19.2 0 0 1 32 8.855ZM14.02 45.809H9.027A2.059 2.059 0 0 1 6.97 43.75v-7.52c0-1.136.922-2.058 2.058-2.058h4.996c.313 0 .567.254.567.566v10.504a.568.568 0 0 1-.57.567Zm-4.993-10.5a.924.924 0 0 0-.922.921v7.52c0 .508.415.922.922.922h4.426v-9.363Zm0 0" style="stroke:none;fill-rule:nonzero;fill:#ef4444;fill-opacity:1"/><path d="M18.684 48.191H15.16a1.709 1.709 0 0 1-1.707-1.707V33.492c0-.937.766-1.703 1.707-1.703h3.524c.941 0 1.707.766 1.707 1.703v12.992c0 .942-.766 1.707-1.707 1.707ZM15.16 32.926a.568.568 0 0 0-.57.57v12.988c0 .317.254.57.57.57h3.524c.312 0 .57-.253.57-.57V33.496a.571.571 0 0 0-.57-.57ZM54.973 45.809h-4.996a.568.568 0 0 1-.567-.57v-10.5c0-.313.254-.567.567-.567h4.996c1.136 0 2.058.922 2.058 2.055v7.523a2.059 2.059 0 0 1-2.058 2.059Zm-4.426-1.137h4.43a.923.923 0 0 0 .918-.922v-7.523a.922.922 0 0 0-.918-.918h-4.43Zm0 0" style="stroke:none;fill-rule:nonzero;fill:#ef4444;fill-opacity:1"/><path d="M48.84 48.191h-3.524a1.709 1.709 0 0 1-1.707-1.707V33.492c0-.937.766-1.703 1.707-1.703h3.524c.941 0 1.707.766 1.707 1.703v12.992c0 .942-.766 1.707-1.707 1.707Zm-3.524-15.265a.568.568 0 0 0-.57.57v12.988c0 .317.254.57.57.57h3.524c.312 0 .57-.253.57-.57V33.496a.571.571 0 0 0-.57-.57ZM11.66 35.309a.568.568 0 0 1-.566-.57v-6.77a.568.568 0 0 1 1.137 0v6.77c0 .316-.254.57-.57.57ZM9.441 35.309a.568.568 0 0 1-.566-.57v-6.891a.57.57 0 0 1 .566-.57c.317 0 .57.257.57.57v6.89c0 .317-.253.57-.57.57ZM54.559 35.309a.568.568 0 0 1-.57-.57v-6.77a.568.568 0 0 1 1.136 0v6.77c0 .316-.254.57-.566.57ZM52.34 35.309a.568.568 0 0 1-.57-.57v-6.77a.568.568 0 0 1 1.136 0v6.77c0 .316-.254.57-.566.57Zm0 0" style="stroke:none;fill-rule:nonzero;fill:#ef4444;fill-opacity:1"/></svg>
